svg/u231a.svg

<svg viewBox="0 0 128 128" xmlns="http://www.w3.org/2000/svg">
  <path d="M111.33,69.06l6.33,0c0.68,0,1.31-0.34,1.65-0.93c0.56-0.95,1.24-2.74,1.24-5.83 c0-3.23-0.74-5.23-1.32-6.3c-0.33-0.61-0.99-0.98-1.68-0.98l-6.23,0c-1.07,0-1.93,0.87-1.93,1.93v10.17 C109.39,68.2,110.26,69.06,111.33,69.06z" fill="#B0BEC5"/>
  <path d="M111.33,69.06l6.33,0c0.68,0,1.31-0.34,1.65-0.93c0.56-0.95,1.24-2.74,1.24-5.83 c0-3.23-0.74-5.23-1.32-6.3c-0.33-0.61-0.99-0.98-1.68-0.98l-6.23,0c-1.07,0-1.93,0.87-1.93,1.93v10.17 C109.39,68.2,110.26,69.06,111.33,69.06z" fill="#90A4AE"/>
  <path d="M106.85,69.06h3.99c0.43,0,0.82-0.34,1.04-0.93c0.35-0.95,0.78-2.74,0.78-5.83 c0-3.23-0.47-5.23-0.83-6.3c-0.21-0.61-0.62-0.98-1.06-0.98l-3.93,0c-0.67,0-1.22,0.87-1.22,1.93v10.17 C105.64,68.2,106.18,69.06,106.85,69.06z" fill="#607D8B"/>
  <g>
    <g>
      <path d="M97.39,25.29c-1.38-6.08-5.83-8.46-8.73-8.46H64H39.34c-2.9,0-7.35,2.38-8.73,8.46 c-1.17,5.13-1.88,11.04-1.88,11.04L64,35.12l35.28,1.21C99.27,36.33,98.55,30.42,97.39,25.29z" fill="#78909C"/>
      <path d="M89.63,4.02H38.16l-3.65,15.24c-1.08,3.8,1.78,7.59,5.73,7.59h47.43c3.98,0,6.84-3.82,5.71-7.64 L89.63,4.02z" fill="#A06841"/>
    </g>
    <g>
      <path d="M30.6,102.76c1.38,6.08,5.83,8.46,8.73,8.46H64h24.66c2.9,0,7.35-2.38,8.73-8.46 c1.17-5.13,1.88-11.04,1.88-11.04L64,92.93l-35.28-1.21C28.72,91.72,29.44,97.63,30.6,102.76z" fill="#78909C"/>
      <path d="M38.36,124.02h51.47l3.65-15.24c1.08-3.8-1.78-7.59-5.73-7.59H40.32c-3.98,0-6.84,3.82-5.71,7.64 L38.36,124.02z" fill="#A06841"/>
    </g>
    <path d="M87.75,101.2H40.32c-3.98,0-6.84,3.82-5.71,7.64l1.28,5.17c3.62-6.4,19.89,0.91,29.57-0.12 c11.99-1.27,17.37-5.05,21.93-2.36c1.48,0.87,2.84,2.21,4.56,2.27c0.12,0,0.22-0.02,0.34-0.03l1.19-4.98 C94.56,104.98,91.7,101.2,87.75,101.2z" fill="#784D30"/>
    <path d="M40.32,26.85h47.43c3.98,0,6.84-3.82,5.71-7.64l-1.28-5.17c-3.62,6.4-19.89-0.91-29.57,0.12 c-11.99,1.27-17.37,5.05-21.93,2.36c-1.48-0.87-2.84-2.21-4.56-2.27c-0.12,0-0.22,0.02-0.34,0.03l-1.19,4.98 C33.5,23.07,36.36,26.85,40.32,26.85z" fill="#784D30"/>
    <g>
      <g>
        <circle cx="64" cy="64" r="47.27" fill="#B0BEC5"/>
        <circle cx="64.23" cy="64" r="37.92" fill="#FFF3E0"/>
      </g>
      <path d="M53.2,25.45c-5.06,1.46-12.14,3.71-19.72,12.77c-7.49,8.95-9.03,19.36-9.51,26.54 c0,0-4.32,5.41-4.53,4.4c-1.63-7.84,1.66-25.36,10.27-34.62c10.02-10.78,23.06-14.6,27.76-15.32C58.29,19.09,54.74,25,53.2,25.45z " opacity="0.64" fill="#ECEFF1"/>
      <g>
        <circle cx="64" cy="64" r="35.92" fill="#FFFFFF"/>
        <circle cx="64.26" cy="64" r="3.99" fill="#563428"/>
        <g>
          <g>
            <path d="M64,36.97L64,36.97c-0.73,0-1.32-0.59-1.32-1.32V31.7c0-0.73,0.59-1.32,1.32-1.32h0 c0.73,0,1.32,0.59,1.32,1.32v3.95C65.31,36.38,64.72,36.97,64,36.97z" fill="#B2947C"/>
            <path d="M64,97.61L64,97.61c-0.73,0-1.32-0.59-1.32-1.32v-3.95c0-0.73,0.59-1.32,1.32-1.32h0 c0.73,0,1.32,0.59,1.32,1.32v3.95C65.31,97.02,64.72,97.61,64,97.61z" fill="#B2947C"/>
          </g>
          <g>
            <path d="M96.29,65.32h-3.95c-0.73,0-1.32-0.59-1.32-1.32v0c0-0.73,0.59-1.32,1.32-1.32h3.95 c0.73,0,1.32,0.59,1.32,1.32v0C97.61,64.73,97.02,65.32,96.29,65.32z" fill="#B2947C"/>
            <path d="M35.65,65.32H31.7c-0.73,0-1.32-0.59-1.32-1.32v0c0-0.73,0.59-1.32,1.32-1.32h3.95 c0.73,0,1.32,0.59,1.32,1.32v0C36.97,64.73,36.38,65.32,35.65,65.32z" fill="#B2947C"/>
          </g>
          <g>
            <path d="M64,36.97L64,36.97c-0.73,0-1.32-0.59-1.32-1.32V31.7c0-0.73,0.59-1.32,1.32-1.32h0 c0.73,0,1.32,0.59,1.32,1.32v3.95C65.31,36.38,64.72,36.97,64,36.97z" fill="#B2947C"/>
            <path d="M64,97.61L64,97.61c-0.73,0-1.32-0.59-1.32-1.32v-3.95c0-0.73,0.59-1.32,1.32-1.32h0 c0.73,0,1.32,0.59,1.32,1.32v3.95C65.31,97.02,64.72,97.61,64,97.61z" fill="#B2947C"/>
          </g>
          <g>
            <path d="M48.68,40.11l-1.97-3.42c-0.36-0.63-0.15-1.44,0.48-1.8l0,0c0.63-0.36,1.44-0.15,1.8,0.48 l1.97,3.42c0.36,0.63,0.15,1.44-0.48,1.8l0,0C49.85,40.96,49.05,40.74,48.68,40.11z" fill="#B2947C"/>
            <path d="M79,92.63l-1.97-3.42c-0.36-0.63-0.15-1.44,0.48-1.8l0,0c0.63-0.36,1.44-0.15,1.8,0.48 l1.97,3.42c0.36,0.63,0.15,1.44-0.48,1.8l0,0C80.17,93.47,79.37,93.26,79,92.63z" fill="#B2947C"/>
          </g>
          <g>
            <path d="M48.68,40.11l-1.97-3.42c-0.36-0.63-0.15-1.44,0.48-1.8l0,0c0.63-0.36,1.44-0.15,1.8,0.48 l1.97,3.42c0.36,0.63,0.15,1.44-0.48,1.8l0,0C49.85,40.96,49.05,40.74,48.68,40.11z" fill="#B2947C"/>
            <path d="M79,92.63l-1.97-3.42c-0.36-0.63-0.15-1.44,0.48-1.8l0,0c0.63-0.36,1.44-0.15,1.8,0.48 l1.97,3.42c0.36,0.63,0.15,1.44-0.48,1.8l0,0C80.17,93.47,79.37,93.26,79,92.63z" fill="#B2947C"/>
          </g>
          <g>
            <path d="M38.79,50.97l-3.42-1.97c-0.63-0.36-0.85-1.17-0.48-1.8l0,0c0.36-0.63,1.17-0.85,1.8-0.48 l3.42,1.97c0.63,0.36,0.85,1.17,0.48,1.8l0,0C40.22,51.11,39.42,51.33,38.79,50.97z" fill="#B2947C"/>
            <path d="M91.31,81.29l-3.42-1.97c-0.63-0.36-0.85-1.17-0.48-1.8l0,0c0.36-0.63,1.17-0.85,1.8-0.48 l3.42,1.97c0.63,0.36,0.85,1.17,0.48,1.8l0,0C92.74,81.44,91.94,81.65,91.31,81.29z" fill="#B2947C"/>
          </g>
          <g>
            <path d="M77.51,40.59L77.51,40.59c-0.63-0.36-0.85-1.17-0.48-1.8L79,35.37 c0.36-0.63,1.17-0.85,1.8-0.48l0,0c0.63,0.36,0.85,1.17,0.48,1.8l-1.97,3.42C78.95,40.74,78.14,40.95,77.51,40.59z" fill="#B2947C"/>
            <path d="M47.19,93.11L47.19,93.11c-0.63-0.36-0.85-1.17-0.48-1.8l1.97-3.42 c0.36-0.63,1.17-0.85,1.8-0.48l0,0c0.63,0.36,0.85,1.17,0.48,1.8l-1.97,3.42C48.62,93.26,47.82,93.47,47.19,93.11z" fill="#B2947C"/>
          </g>
          <g>
            <path d="M87.4,50.48L87.4,50.48c-0.36-0.63-0.15-1.44,0.48-1.8l3.42-1.97 c0.63-0.36,1.44-0.15,1.8,0.48l0,0c0.36,0.63,0.15,1.44-0.48,1.8l-3.42,1.97C88.57,51.33,87.77,51.12,87.4,50.48z" fill="#B2947C"/>
            <path d="M34.89,80.81L34.89,80.81c-0.36-0.63-0.15-1.44,0.48-1.8l3.42-1.97 c0.63-0.36,1.44-0.15,1.8,0.48l0,0c0.36,0.63,0.15,1.44-0.48,1.8l-3.42,1.97C36.06,81.65,35.25,81.44,34.89,80.81z" fill="#B2947C"/>
          </g>
        </g>
        <line fill="none" stroke="#563428" stroke-width="4.4863" stroke-linecap="round" stroke-miterlimit="10" x1="49.45" x2="64" y1="55.74" y2="64"/>
        <line fill="none" stroke="#563428" stroke-width="3.1404" stroke-linecap="round" stroke-miterlimit="10" x1="84.78" x2="64.66" y1="52.08" y2="64"/>
      </g>
    </g>
    <path d="M47.07,11.99c6.75,0.15,13.5-0.87,20.25-0.54c0.96,0.05,1.93,0.12,2.88-0.05s1.89-0.61,2.44-1.4 c0.55-0.79,0.6-1.96-0.05-2.67c-0.37-0.41-0.91-0.61-1.44-0.77C68.32,5.73,65.3,6,62.36,6.18c-4.92,0.3-9.85,0.34-14.77,0.12 c-1.82-0.08-4.42-0.82-6.04,0.25c-1.12,0.74-1.79,2.28-0.98,3.48C41.83,11.88,45.11,11.94,47.07,11.99z" fill="#B7855F"/>
  </g>
  <path d="M113.87,60.44c-0.39-0.09-0.62-1.11,0.25-1.34c1.09-0.28,3.61-0.16,4.83,0.03 c0.64,0.1,0.86,1.35-0.33,1.44C117.64,60.64,114.25,60.53,113.87,60.44z" opacity="0.75" fill="#FFF3E0"/>
  <path d="M113.8,57.69c-0.82-0.07-1.84-1.68-0.43-1.76c1.88-0.11,3.62-0.03,4.59,0.03 c1.17,0.08,1.38,1.7,0.14,1.72C116.95,57.69,114.76,57.78,113.8,57.69z" opacity="0.75" fill="#FFF3E0"/>
</svg>

<svg viewBox="0 0 128 128" xmlns="http://www.w3.org/2000/svg">
  <defs/>
  <path d="M111.33,69.06 L117.66,69.06 C118.34,69.06 118.97,68.72 119.31,68.13 C119.87,67.18 120.55,65.39 120.55,62.3 C120.55,59.07 119.81,57.07 119.23,56 C118.9,55.39 118.24,55.02 117.55,55.02 L111.32,55.02 C110.25,55.02 109.39,55.89 109.39,56.95 L109.39,67.12 C109.39,68.2 110.26,69.06 111.33,69.06 Z" fill="#B0BEC5"/>
  <path d="M111.33,69.06 L117.66,69.06 C118.34,69.06 118.97,68.72 119.31,68.13 C119.87,67.18 120.55,65.39 120.55,62.3 C120.55,59.07 119.81,57.07 119.23,56 C118.9,55.39 118.24,55.02 117.55,55.02 L111.32,55.02 C110.25,55.02 109.39,55.89 109.39,56.95 L109.39,67.12 C109.39,68.2 110.26,69.06 111.33,69.06 Z" fill="#90A4AE"/>
  <path d="M106.85,69.06 L110.84,69.06 C111.27,69.06 111.66,68.72 111.88,68.13 C112.23,67.18 112.66,65.39 112.66,62.3 C112.66,59.07 112.19,57.07 111.83,56 C111.62,55.39 111.21,55.02 110.77,55.02 L106.84,55.02 C106.17,55.02 105.62,55.89 105.62,56.95 L105.62,67.12 C105.64,68.2 106.18,69.06 106.85,69.06 Z" fill="#607D8B"/>
  <path d="M97.39,25.29 C96.01,19.21 91.56,16.83 88.66,16.83 L64,16.83 L39.34,16.83 C36.44,16.83 31.99,19.21 30.61,25.29 C29.44,30.42 28.73,36.33 28.73,36.33 L64,35.12 L99.28,36.33 C99.27,36.33 98.55,30.42 97.39,25.29 Z" fill="#78909C"/>
  <path d="M89.63,4.02 L38.16,4.02 L34.51,19.26 C33.43,23.06 36.29,26.85 40.24,26.85 L87.67,26.85 C91.65,26.85 94.51,23.03 93.38,19.21 L89.63,4.02 Z" fill="#A06841"/>
  <path d="M30.6,102.76 C31.98,108.84 36.43,111.22 39.33,111.22 L64,111.22 L88.66,111.22 C91.56,111.22 96.01,108.84 97.39,102.76 C98.56,97.63 99.27,91.72 99.27,91.72 L64,92.93 L28.72,91.72 C28.72,91.72 29.44,97.63 30.6,102.76 Z" fill="#78909C"/>
  <path d="M38.36,124.02 L89.83,124.02 L93.48,108.78 C94.56,104.98 91.7,101.19 87.75,101.19 L40.32,101.19 C36.34,101.19 33.48,105.01 34.61,108.83 L38.36,124.02 Z" fill="#A06841"/>
  <path d="M87.75,101.2 L40.32,101.2 C36.34,101.2 33.48,105.02 34.61,108.84 L35.89,114.01 C39.51,107.61 55.78,114.92 65.46,113.89 C77.45,112.62 82.83,108.84 87.39,111.53 C88.87,112.4 90.23,113.74 91.95,113.8 C92.07,113.8 92.17,113.78 92.29,113.77 L93.48,108.79 C94.56,104.98 91.7,101.2 87.75,101.2 Z" fill="#784D30"/>
  <path d="M40.32,26.85 L87.75,26.85 C91.73,26.85 94.59,23.03 93.46,19.21 L92.18,14.04 C88.56,20.44 72.29,13.13 62.61,14.16 C50.62,15.43 45.24,19.21 40.68,16.52 C39.2,15.65 37.84,14.31 36.12,14.25 C36,14.25 35.9,14.27 35.78,14.28 L34.59,19.26 C33.5,23.07 36.36,26.85 40.32,26.85 Z" fill="#784D30"/>
  <path d="M111.27,64 A47.27 47.27 0 1 1 16.73,64 A47.27 47.27 0 1 1 111.27,64 Z" fill="#B0BEC5"/>
  <path d="M102.15,64 A37.92 37.92 0 1 1 26.31,64 A37.92 37.92 0 1 1 102.15,64 Z" fill="#FFF3E0"/>
  <path d="M53.2,25.45 C48.14,26.91 41.06,29.16 33.48,38.22 C25.99,47.17 24.45,57.58 23.97,64.76 C23.97,64.76 19.65,70.17 19.44,69.16 C17.81,61.32 21.1,43.8 29.71,34.54 C39.73,23.76 52.77,19.94 57.47,19.22 C58.29,19.09 54.74,25 53.2,25.45 Z" fill="#ECEFF1" opacity="0.64"/>
  <path d="M99.92,64 A35.92 35.92 0 1 1 28.08,64 A35.92 35.92 0 1 1 99.92,64 Z" fill="#FFFFFF"/>
  <path d="M68.25,64 A3.99 3.99 0 1 1 60.27,64 A3.99 3.99 0 1 1 68.25,64 Z" fill="#563428"/>
  <path d="M64,36.97 L64,36.97 C63.27,36.97 62.68,36.38 62.68,35.65 L62.68,31.7 C62.68,30.97 63.27,30.38 64,30.38 L64,30.38 C64.73,30.38 65.32,30.97 65.32,31.7 L65.32,35.65 C65.31,36.38 64.72,36.97 64,36.97 Z" fill="#B2947C"/>
  <path d="M64,97.61 L64,97.61 C63.27,97.61 62.68,97.02 62.68,96.29 L62.68,92.34 C62.68,91.61 63.27,91.02 64,91.02 L64,91.02 C64.73,91.02 65.32,91.61 65.32,92.34 L65.32,96.29 C65.31,97.02 64.72,97.61 64,97.61 Z" fill="#B2947C"/>
  <path d="M96.29,65.32 L92.34,65.32 C91.61,65.32 91.02,64.73 91.02,64 L91.02,64 C91.02,63.27 91.61,62.68 92.34,62.68 L96.29,62.68 C97.02,62.68 97.61,63.27 97.61,64 L97.61,64 C97.61,64.73 97.02,65.32 96.29,65.32 Z" fill="#B2947C"/>
  <path d="M35.65,65.32 L31.7,65.32 C30.97,65.32 30.38,64.73 30.38,64 L30.38,64 C30.38,63.27 30.97,62.68 31.7,62.68 L35.65,62.68 C36.38,62.68 36.97,63.27 36.97,64 L36.97,64 C36.97,64.73 36.38,65.32 35.65,65.32 Z" fill="#B2947C"/>
  <path d="M64,36.97 L64,36.97 C63.27,36.97 62.68,36.38 62.68,35.65 L62.68,31.7 C62.68,30.97 63.27,30.38 64,30.38 L64,30.38 C64.73,30.38 65.32,30.97 65.32,31.7 L65.32,35.65 C65.31,36.38 64.72,36.97 64,36.97 Z" fill="#B2947C"/>
  <path d="M64,97.61 L64,97.61 C63.27,97.61 62.68,97.02 62.68,96.29 L62.68,92.34 C62.68,91.61 63.27,91.02 64,91.02 L64,91.02 C64.73,91.02 65.32,91.61 65.32,92.34 L65.32,96.29 C65.31,97.02 64.72,97.61 64,97.61 Z" fill="#B2947C"/>
  <path d="M48.68,40.11 L46.71,36.69 C46.35,36.06 46.56,35.25 47.19,34.89 L47.19,34.89 C47.82,34.53 48.63,34.74 48.99,35.37 L50.96,38.79 C51.32,39.42 51.11,40.23 50.48,40.59 L50.48,40.59 C49.85,40.96 49.05,40.74 48.68,40.11 Z" fill="#B2947C"/>
  <path d="M79,92.63 L77.03,89.21 C76.67,88.58 76.88,87.77 77.51,87.41 L77.51,87.41 C78.14,87.05 78.95,87.26 79.31,87.89 L81.28,91.31 C81.64,91.94 81.43,92.75 80.8,93.11 L80.8,93.11 C80.17,93.47 79.37,93.26 79,92.63 Z" fill="#B2947C"/>
  <path d="M48.68,40.11 L46.71,36.69 C46.35,36.06 46.56,35.25 47.19,34.89 L47.19,34.89 C47.82,34.53 48.63,34.74 48.99,35.37 L50.96,38.79 C51.32,39.42 51.11,40.23 50.48,40.59 L50.48,40.59 C49.85,40.96 49.05,40.74 48.68,40.11 Z" fill="#B2947C"/>
  <path d="M79,92.63 L77.03,89.21 C76.67,88.58 76.88,87.77 77.51,87.41 L77.51,87.41 C78.14,87.05 78.95,87.26 79.31,87.89 L81.28,91.31 C81.64,91.94 81.43,92.75 80.8,93.11 L80.8,93.11 C80.17,93.47 79.37,93.26 79,92.63 Z" fill="#B2947C"/>
  <path d="M38.79,50.97 L35.37,49 C34.74,48.64 34.52,47.83 34.89,47.2 L34.89,47.2 C35.25,46.57 36.06,46.35 36.69,46.72 L40.11,48.69 C40.74,49.05 40.96,49.86 40.59,50.49 L40.59,50.49 C40.22,51.11 39.42,51.33 38.79,50.97 Z" fill="#B2947C"/>
  <path d="M91.31,81.29 L87.89,79.32 C87.26,78.96 87.04,78.15 87.41,77.52 L87.41,77.52 C87.77,76.89 88.58,76.67 89.21,77.04 L92.63,79.01 C93.26,79.37 93.48,80.18 93.11,80.81 L93.11,80.81 C92.74,81.44 91.94,81.65 91.31,81.29 Z" fill="#B2947C"/>
  <path d="M77.51,40.59 L77.51,40.59 C76.88,40.23 76.66,39.42 77.03,38.79 L79,35.37 C79.36,34.74 80.17,34.52 80.8,34.89 L80.8,34.89 C81.43,35.25 81.65,36.06 81.28,36.69 L79.31,40.11 C78.95,40.74 78.14,40.95 77.51,40.59 Z" fill="#B2947C"/>
  <path d="M47.19,93.11 L47.19,93.11 C46.56,92.75 46.34,91.94 46.71,91.31 L48.68,87.89 C49.04,87.26 49.85,87.04 50.48,87.41 L50.48,87.41 C51.11,87.77 51.33,88.58 50.96,89.21 L48.99,92.63 C48.62,93.26 47.82,93.47 47.19,93.11 Z" fill="#B2947C"/>
  <path d="M87.4,50.48 L87.4,50.48 C87.04,49.85 87.25,49.04 87.88,48.68 L91.3,46.71 C91.93,46.35 92.74,46.56 93.1,47.19 L93.1,47.19 C93.46,47.82 93.25,48.63 92.62,48.99 L89.2,50.96 C88.57,51.33 87.77,51.12 87.4,50.48 Z" fill="#B2947C"/>
  <path d="M34.89,80.81 L34.89,80.81 C34.53,80.18 34.74,79.37 35.37,79.01 L38.79,77.04 C39.42,76.68 40.23,76.89 40.59,77.52 L40.59,77.52 C40.95,78.15 40.74,78.96 40.11,79.32 L36.69,81.29 C36.06,81.65 35.25,81.44 34.89,80.81 Z" fill="#B2947C"/>
  <path d="M50.557,53.789 L65.107,62.049 Q65.915,62.508 66.162,63.404 Q66.409,64.299 65.951,65.107 Q65.492,65.915 64.596,66.162 Q63.701,66.409 62.893,65.951 L48.343,57.691 Q47.535,57.232 47.288,56.336 Q47.041,55.441 47.499,54.633 Q47.958,53.825 48.854,53.578 Q49.749,53.331 50.557,53.789 Z" fill="#563428"/>
  <path d="M85.58,53.431 L65.46,65.351 Q64.109,66.151 63.309,64.8 Q62.509,63.449 63.86,62.649 L83.98,50.729 Q84.655,50.329 85.193,50.467 Q85.731,50.604 86.131,51.28 Q86.931,52.631 85.58,53.431 Z" fill="#563428"/>
  <path d="M47.07,11.99 C53.82,12.14 60.57,11.12 67.32,11.45 C68.28,11.5 69.25,11.57 70.2,11.4 C71.15,11.23 72.09,10.79 72.64,10 C73.19,9.21 73.24,8.04 72.59,7.33 C72.22,6.92 71.68,6.72 71.15,6.56 C68.32,5.73 65.3,6 62.36,6.18 C57.44,6.48 52.51,6.52 47.59,6.3 C45.77,6.22 43.17,5.48 41.55,6.55 C40.43,7.29 39.76,8.83 40.57,10.03 C41.83,11.88 45.11,11.94 47.07,11.99 Z" fill="#B7855F"/>
  <path d="M113.87,60.44 C113.48,60.35 113.25,59.33 114.12,59.1 C115.21,58.82 117.73,58.94 118.95,59.13 C119.59,59.23 119.81,60.48 118.62,60.57 C117.64,60.64 114.25,60.53 113.87,60.44 Z" fill="#FFF3E0" opacity="0.75"/>
  <path d="M113.8,57.69 C112.98,57.62 111.96,56.01 113.37,55.93 C115.25,55.82 116.99,55.9 117.96,55.96 C119.13,56.04 119.34,57.66 118.1,57.68 C116.95,57.69 114.76,57.78 113.8,57.69 Z" fill="#FFF3E0" opacity="0.75"/>
</svg>
